Newaita-dark/apps/scalable/rawtherapee.svg

<?xml version="1.0" encoding="UTF-8"?>
<svg xmlns="http://www.w3.org/2000/svg" xmlns:xlink="http://www.w3.org/1999/xlink" width="512pt" height="512pt" viewBox="0 0 512 512" version="1.1">
<defs>
<radialGradient id="radial0" gradientUnits="userSpaceOnUse" cx="450.908936" cy="189.579361" fx="450.908936" fy="189.579361" r="21.166656" gradientTransform="matrix(0.00000278673,-1.250119,-2.250215,-0.00000162462,707.078269,1017.52527)">
<stop offset="0" style="stop-color:rgb(0%,0%,0%);stop-opacity:0.313725;"/>
<stop offset="0.222222" style="stop-color:rgb(0%,0%,0%);stop-opacity:0.27451;"/>
<stop offset="1" style="stop-color:rgb(0%,0%,0%);stop-opacity:0;"/>
</radialGradient>
<radialGradient id="radial1" gradientUnits="userSpaceOnUse" cx="450.908936" cy="189.579361" fx="450.908936" fy="189.579361" r="21.166656" gradientTransform="matrix(-0.00000278673,1.250119,2.250215,0.00000162462,-199.029767,-120.439713)">
<stop offset="0" style="stop-color:rgb(0%,0%,0%);stop-opacity:0.313725;"/>
<stop offset="0.222222" style="stop-color:rgb(0%,0%,0%);stop-opacity:0.27451;"/>
<stop offset="1" style="stop-color:rgb(0%,0%,0%);stop-opacity:0;"/>
</radialGradient>
<radialGradient id="radial2" gradientUnits="userSpaceOnUse" cx="450.908936" cy="189.579361" fx="450.908936" fy="189.579361" r="21.166656" gradientTransform="matrix(-0.00000278673,-1.250119,2.250215,-0.00000162462,-199.029767,1017.52527)">
<stop offset="0" style="stop-color:rgb(0%,0%,0%);stop-opacity:0.313725;"/>
<stop offset="0.222222" style="stop-color:rgb(0%,0%,0%);stop-opacity:0.27451;"/>
<stop offset="1" style="stop-color:rgb(0%,0%,0%);stop-opacity:0;"/>
</radialGradient>
<radialGradient id="radial3" gradientUnits="userSpaceOnUse" cx="450.908936" cy="189.579361" fx="450.908936" fy="189.579361" r="21.166656" gradientTransform="matrix(0.00000278673,1.250119,-2.250215,0.00000162462,707.078238,-120.43972)">
<stop offset="0" style="stop-color:rgb(0%,0%,0%);stop-opacity:0.313725;"/>
<stop offset="0.222222" style="stop-color:rgb(0%,0%,0%);stop-opacity:0.27451;"/>
<stop offset="1" style="stop-color:rgb(0%,0%,0%);stop-opacity:0;"/>
</radialGradient>
<linearGradient id="linear0" gradientUnits="userSpaceOnUse" x1="255.323059" y1="233.5" x2="255.323044" y2="254.666656" gradientTransform="matrix(0.213761,0,0,1.000095,199.446179,215.020539)">
<stop offset="0" style="stop-color:rgb(0%,0%,0%);stop-opacity:0.27451;"/>
<stop offset="1" style="stop-color:rgb(0%,0%,0%);stop-opacity:0;"/>
</linearGradient>
<linearGradient id="linear1" gradientUnits="userSpaceOnUse" x1="254" y1="-168.666672" x2="254" y2="32.416664" >
<stop offset="0" style="stop-color:rgb(100%,83.529412%,30.980392%);stop-opacity:1;"/>
<stop offset="1" style="stop-color:rgb(100%,79.215686%,15.686275%);stop-opacity:1;"/>
</linearGradient>
<linearGradient id="linear2" gradientUnits="userSpaceOnUse" x1="254" y1="-168.666672" x2="254" y2="32.41642" gradientTransform="matrix(-1,0.000000000000000122,-0.000000000000000122,-1,508,64.833084)">
<stop offset="0" style="stop-color:rgb(93.72549%,32.54902%,31.372549%);stop-opacity:1;"/>
<stop offset="1" style="stop-color:rgb(89.803922%,45.098039%,45.098039%);stop-opacity:1;"/>
</linearGradient>
<linearGradient id="linear3" gradientUnits="userSpaceOnUse" x1="275.166656" y1="32.416668" x2="275.166656" y2="-168.666656" gradientTransform="matrix(3.779528,0,0,3.779528,0,812.59845)">
<stop offset="0" style="stop-color:rgb(40%,73.333333%,41.568627%);stop-opacity:1;"/>
<stop offset="1" style="stop-color:rgb(50.588235%,78.039216%,51.764706%);stop-opacity:1;"/>
</linearGradient>
<linearGradient id="linear4" gradientUnits="userSpaceOnUse" x1="254" y1="-168.666672" x2="254" y2="32.416668" gradientTransform="matrix(1,0,0,1,0.0002,0.00040044)">
<stop offset="0" style="stop-color:rgb(50.196078%,87.058824%,91.764706%);stop-opacity:1;"/>
<stop offset="1" style="stop-color:rgb(14.901961%,77.647059%,85.490196%);stop-opacity:1;"/>
</linearGradient>
<linearGradient id="linear5" gradientUnits="userSpaceOnUse" x1="232.833328" y1="32.41642" x2="232.833328" y2="-168.666916" gradientTransform="matrix(1,0,0,-1,0,64.833084)">
<stop offset="0" style="stop-color:rgb(39.215686%,70.980392%,96.470588%);stop-opacity:1;"/>
<stop offset="1" style="stop-color:rgb(25.882353%,64.705882%,96.078431%);stop-opacity:1;"/>
</linearGradient>
<linearGradient id="linear6" gradientUnits="userSpaceOnUse" x1="111.812424" y1="-109.771133" x2="254" y2="32.416668" gradientTransform="matrix(-0.707107,-0.707107,0.707107,-0.707107,410.683223,234.943409)">
<stop offset="0" style="stop-color:rgb(92.54902%,25.098039%,47.843137%);stop-opacity:1;"/>
<stop offset="1" style="stop-color:rgb(94.117647%,38.431373%,57.254902%);stop-opacity:1;"/>
</linearGradient>
<linearGradient id="linear7" gradientUnits="userSpaceOnUse" x1="254" y1="-168.666672" x2="254" y2="32.416668" gradientTransform="matrix(-1,0,0,1,508.000092,0.00040044)">
<stop offset="0" style="stop-color:rgb(100%,54.117647%,39.607843%);stop-opacity:1;"/>
<stop offset="1" style="stop-color:rgb(100%,43.921569%,26.27451%);stop-opacity:1;"/>
</linearGradient>
<linearGradient id="linear8" gradientUnits="userSpaceOnUse" x1="111.812424" y1="-109.771133" x2="254" y2="32.416668" gradientTransform="matrix(0.707107,-0.707107,-0.707107,-0.707107,96.628952,234.943405)">
<stop offset="0" style="stop-color:rgb(49.411765%,34.117647%,76.078431%);stop-opacity:1;"/>
<stop offset="1" style="stop-color:rgb(58.431373%,45.882353%,80.392157%);stop-opacity:1;"/>
</linearGradient>
<linearGradient id="linear9" gradientUnits="userSpaceOnUse" x1="243.416672" y1="-20.5" x2="243.416672" y2="85.333336" gradientTransform="matrix(1.8,0,0,1.8,-203.199966,-25.933336)">
<stop offset="0" style="stop-color:rgb(69.019608%,74.509804%,77.254902%);stop-opacity:1;"/>
<stop offset="1" style="stop-color:rgb(81.176471%,84.705882%,86.27451%);stop-opacity:1;"/>
</linearGradient>
</defs>
<g id="surface1">
<path style=" stroke:none;fill-rule:nonzero;fill:url(#radial0);" d="M 285.777344 448.542969 L 328.113281 448.542969 L 328.113281 427.375 L 285.777344 427.375 Z M 285.777344 448.542969 "/>
<path style=" stroke:none;fill-rule:nonzero;fill:url(#radial1);" d="M 222.269531 448.542969 L 179.933594 448.542969 L 179.933594 469.710938 L 222.269531 469.710938 Z M 222.269531 448.542969 "/>
<path style=" stroke:none;fill-rule:nonzero;fill:url(#radial2);" d="M 222.269531 448.542969 L 179.933594 448.542969 L 179.933594 427.375 L 222.269531 427.375 Z M 222.269531 448.542969 "/>
<path style=" stroke:none;fill-rule:nonzero;fill:url(#radial3);" d="M 285.777344 448.542969 L 328.113281 448.542969 L 328.113281 469.710938 L 285.777344 469.710938 Z M 285.777344 448.542969 "/>
<path style=" stroke:none;fill-rule:nonzero;fill:url(#linear0);" d="M 222.269531 437.957031 L 285.777344 437.957031 L 285.777344 469.710938 L 222.269531 469.710938 Z M 222.269531 437.957031 "/>
<path style="fill-rule:nonzero;fill:url(#linear1);stroke-width:3;stroke-linecap:round;stroke-linejoin:miter;stroke:rgb(20%,20%,20%);stroke-opacity:1;stroke-miterlimit:4;" d="M 253.999182 -168.668487 C 365.054983 -168.668487 455.081542 -78.638022 455.081542 32.417779 C 455.081542 143.47358 365.054983 233.500139 253.999182 233.500139 C 142.943381 233.500139 52.916822 143.47358 52.916822 32.417779 C 52.916822 -78.638022 142.943381 -168.668487 253.999182 -168.668487 Z M 253.999182 -168.668487 " transform="matrix(1.000095,0,0,1.000095,0,215.020531)"/>
<path style="fill-rule:nonzero;fill:url(#linear2);stroke-width:3;stroke-linecap:round;stroke-linejoin:miter;stroke:rgb(20%,20%,20%);stroke-opacity:1;stroke-miterlimit:4;" d="M 253.999182 233.500139 C 365.3987 233.500139 455.081542 143.817297 455.081542 32.417779 L 253.999182 32.417779 Z M 253.999182 233.500139 " transform="matrix(1.000095,0,0,1.000095,0,215.020531)"/>
<path style="fill-rule:nonzero;fill:url(#linear3);stroke-width:11.338583;stroke-linecap:round;stroke-linejoin:miter;stroke:rgb(20%,20%,20%);stroke-opacity:1;stroke-miterlimit:4;" d="M 959.996958 175.11124 C 538.959387 175.11124 200.000596 514.07003 200.000596 935.122364 L 959.996958 935.122364 Z M 959.996958 175.11124 " transform="matrix(0.264609,0,0,0.264609,0,0)"/>
<path style="fill-rule:nonzero;fill:url(#linear4);stroke-width:3;stroke-linecap:round;stroke-linejoin:miter;stroke:rgb(20%,20%,20%);stroke-opacity:1;stroke-miterlimit:4;" d="M 111.684647 -109.900661 C 75.336556 -73.55257 52.916822 -23.283933 52.916822 32.417779 L 253.999182 32.417779 Z M 111.684647 -109.900661 " transform="matrix(1.000095,0,0,1.000095,0,215.020531)"/>
<path style="fill-rule:nonzero;fill:url(#linear5);stroke-width:3;stroke-linecap:round;stroke-linejoin:miter;stroke:rgb(20%,20%,20%);stroke-opacity:1;stroke-miterlimit:4;" d="M 253.999182 233.500139 C 142.599664 233.500139 52.916822 143.817297 52.916822 32.417779 L 253.999182 32.417779 Z M 253.999182 233.500139 " transform="matrix(1.000095,0,0,1.000095,0,215.020531)"/>
<path style="fill-rule:nonzero;fill:url(#linear6);stroke-width:3;stroke-linecap:round;stroke-linejoin:miter;stroke:rgb(20%,20%,20%);stroke-opacity:1;stroke-miterlimit:4;" d="M 253.999182 233.683715 C 305.400523 233.683715 356.801865 213.990283 396.188728 174.60342 L 253.999182 32.417779 Z M 253.999182 233.683715 " transform="matrix(1.000095,0,0,1.000095,0,215.020531)"/>
<path style="fill-rule:nonzero;fill:url(#linear7);stroke-width:3;stroke-linecap:round;stroke-linejoin:miter;stroke:rgb(20%,20%,20%);stroke-opacity:1;stroke-miterlimit:4;" d="M 396.317622 -109.900661 C 432.661808 -73.55257 455.081542 -23.283933 455.081542 32.417779 L 253.999182 32.417779 Z M 396.317622 -109.900661 " transform="matrix(1.000095,0,0,1.000095,0,215.020531)"/>
<path style="fill-rule:nonzero;fill:url(#linear8);stroke-width:3;stroke-linecap:round;stroke-linejoin:miter;stroke:rgb(20%,20%,20%);stroke-opacity:1;stroke-miterlimit:4;" d="M 253.311747 233.683715 C 201.910406 233.683715 150.509065 213.990283 111.126107 174.60342 L 253.311747 32.417779 Z M 253.311747 233.683715 " transform="matrix(1.000095,0,0,1.000095,0,215.020531)"/>
<path style=" stroke:none;fill-rule:nonzero;fill:rgb(0%,0%,0%);fill-opacity:0.196078;" d="M 254.023438 448.542969 C 142.613281 448.542969 52.921875 358.851562 52.921875 247.441406 C 52.921875 246.78125 52.929688 246.125 52.933594 245.472656 C 53.984375 355.964844 143.269531 444.605469 254.023438 444.605469 C 364.777344 444.605469 454.0625 355.964844 455.113281 245.472656 C 455.121094 246.125 455.125 246.78125 455.125 247.441406 C 455.125 358.851562 365.433594 448.542969 254.023438 448.542969 Z M 254.023438 448.542969 "/>
<path style=" stroke:none;fill-rule:nonzero;fill:rgb(100%,100%,100%);fill-opacity:0.392157;" d="M 254.023438 46.335938 C 142.613281 46.335938 52.921875 136.027344 52.921875 247.441406 C 52.921875 248.097656 52.929688 248.753906 52.933594 249.410156 C 53.984375 138.914062 143.269531 50.277344 254.023438 50.277344 C 364.777344 50.277344 454.0625 138.914062 455.113281 249.410156 C 455.121094 248.753906 455.125 248.097656 455.125 247.441406 C 455.125 136.027344 365.433594 46.335938 254.023438 46.335938 Z M 254.023438 46.335938 "/>
<path style=" stroke:none;fill-rule:nonzero;fill:rgb(12.941177%,12.941177%,12.941177%);fill-opacity:1;" d="M 254.023438 44.839844 C 141.808594 44.839844 51.421875 135.222656 51.421875 247.441406 C 51.421875 359.65625 141.808594 450.042969 254.023438 450.042969 C 366.238281 450.042969 456.628906 359.65625 456.628906 247.441406 C 456.628906 135.222656 366.238281 44.839844 254.023438 44.839844 Z M 254.023438 47.839844 C 364.628906 47.839844 453.628906 136.832031 453.628906 247.441406 C 453.628906 358.046875 364.628906 447.042969 254.023438 447.042969 C 143.417969 447.042969 54.421875 358.046875 54.421875 247.441406 C 54.421875 136.832031 143.417969 47.839844 254.023438 47.839844 Z M 254.023438 47.839844 "/>
<path style="fill-rule:nonzero;fill:url(#linear9);stroke-width:3;stroke-linecap:square;stroke-linejoin:round;stroke:rgb(12.941177%,12.941177%,12.941177%);stroke-opacity:1;stroke-miterlimit:4;" d="M 253.999182 -62.834844 C 306.603533 -62.834844 349.251804 -20.186573 349.251804 32.417779 C 349.251804 85.022131 306.603533 127.666496 253.999182 127.666496 C 201.39483 127.666496 158.750465 85.022131 158.750465 32.417779 C 158.750465 -20.186573 201.39483 -62.834844 253.999182 -62.834844 Z M 253.999182 -62.834844 " transform="matrix(1.000095,0,0,1.000095,0,215.020531)"/>
</g>
</svg>

<svg xmlns="http://www.w3.org/2000/svg" width="512pt" height="512pt" viewBox="0 0 512 512"><defs><radialGradient id="a" gradientUnits="userSpaceOnUse" cx="450.909" cy="189.579" fx="450.909" fy="189.579" r="21.167" gradientTransform="matrix(0 -1.25012 -2.25021 0 707.078 1017.525)"><stop offset="0" stop-opacity=".314"/><stop offset=".222" stop-opacity=".275"/><stop offset="1" stop-opacity="0"/></radialGradient><radialGradient id="b" gradientUnits="userSpaceOnUse" cx="450.909" cy="189.579" fx="450.909" fy="189.579" r="21.167" gradientTransform="matrix(0 1.25012 2.25021 0 -199.03 -120.44)"><stop offset="0" stop-opacity=".314"/><stop offset=".222" stop-opacity=".275"/><stop offset="1" stop-opacity="0"/></radialGradient><radialGradient id="c" gradientUnits="userSpaceOnUse" cx="450.909" cy="189.579" fx="450.909" fy="189.579" r="21.167" gradientTransform="matrix(0 -1.25012 2.25021 0 -199.03 1017.525)"><stop offset="0" stop-opacity=".314"/><stop offset=".222" stop-opacity=".275"/><stop offset="1" stop-opacity="0"/></radialGradient><radialGradient id="d" gradientUnits="userSpaceOnUse" cx="450.909" cy="189.579" fx="450.909" fy="189.579" r="21.167" gradientTransform="matrix(0 1.25012 -2.25021 0 707.078 -120.44)"><stop offset="0" stop-opacity=".314"/><stop offset=".222" stop-opacity=".275"/><stop offset="1" stop-opacity="0"/></radialGradient><linearGradient id="e" gradientUnits="userSpaceOnUse" x1="255.323" y1="233.5" x2="255.323" y2="254.667" gradientTransform="matrix(.21376 0 0 1.0001 199.446 215.02)"><stop offset="0" stop-opacity=".275"/><stop offset="1" stop-opacity="0"/></linearGradient><linearGradient id="f" gradientUnits="userSpaceOnUse" x1="254" y1="-168.667" x2="254" y2="32.417"><stop offset="0" stop-color="#ffd54f"/><stop offset="1" stop-color="#ffca28"/></linearGradient><linearGradient id="g" gradientUnits="userSpaceOnUse" x1="254" y1="-168.667" x2="254" y2="32.416" gradientTransform="rotate(180 254 32.417)"><stop offset="0" stop-color="#ef5350"/><stop offset="1" stop-color="#e57373"/></linearGradient><linearGradient id="h" gradientUnits="userSpaceOnUse" x1="275.167" y1="32.417" x2="275.167" y2="-168.667" gradientTransform="matrix(3.77953 0 0 3.77953 0 812.598)"><stop offset="0" stop-color="#66bb6a"/><stop offset="1" stop-color="#81c784"/></linearGradient><linearGradient id="i" gradientUnits="userSpaceOnUse" x1="254" y1="-168.667" x2="254" y2="32.417"><stop offset="0" stop-color="#80deea"/><stop offset="1" stop-color="#26c6da"/></linearGradient><linearGradient id="j" gradientUnits="userSpaceOnUse" x1="232.833" y1="32.416" x2="232.833" y2="-168.667" gradientTransform="matrix(1 0 0 -1 0 64.833)"><stop offset="0" stop-color="#64b5f6"/><stop offset="1" stop-color="#42a5f5"/></linearGradient><linearGradient id="k" gradientUnits="userSpaceOnUse" x1="111.812" y1="-109.771" x2="254" y2="32.417" gradientTransform="rotate(-135 254 32.416)"><stop offset="0" stop-color="#ec407a"/><stop offset="1" stop-color="#f06292"/></linearGradient><linearGradient id="l" gradientUnits="userSpaceOnUse" x1="254" y1="-168.667" x2="254" y2="32.417" gradientTransform="matrix(-1 0 0 1 508 0)"><stop offset="0" stop-color="#ff8a65"/><stop offset="1" stop-color="#ff7043"/></linearGradient><linearGradient id="m" gradientUnits="userSpaceOnUse" x1="111.812" y1="-109.771" x2="254" y2="32.417" gradientTransform="scale(1 -1) rotate(45 331.916 -.83)"><stop offset="0" stop-color="#7e57c2"/><stop offset="1" stop-color="#9575cd"/></linearGradient><linearGradient id="n" gradientUnits="userSpaceOnUse" x1="243.417" y1="-20.5" x2="243.417" y2="85.333" gradientTransform="matrix(1.8 0 0 1.8 -203.2 -25.933)"><stop offset="0" stop-color="#b0bec5"/><stop offset="1" stop-color="#cfd8dc"/></linearGradient></defs><path d="M285.777 448.543h42.336v-21.168h-42.336zm0 0" fill="url(#a)"/><path d="M222.27 448.543h-42.336v21.168h42.336zm0 0" fill="url(#b)"/><path d="M222.27 448.543h-42.336v-21.168h42.336zm0 0" fill="url(#c)"/><path d="M285.777 448.543h42.336v21.168h-42.336zm0 0" fill="url(#d)"/><path d="M222.27 437.957h63.507v31.754H222.27zm0 0" fill="url(#e)"/><path d="M254-168.668c111.055 0 201.082 90.03 201.082 201.086 0 111.056-90.027 201.082-201.083 201.082S52.917 143.474 52.917 32.418s90.026-201.086 201.082-201.086zm0 0" transform="matrix(1.0001 0 0 1.0001 0 215.02)" fill="url(#f)" stroke-width="3" stroke-linecap="round" stroke="#333"/><path d="M254 233.5c111.399 0 201.082-89.683 201.082-201.082H253.999zm0 0" transform="matrix(1.0001 0 0 1.0001 0 215.02)" fill="url(#g)" stroke-width="3" stroke-linecap="round" stroke="#333"/><path d="M959.997 175.111c-421.038 0-759.996 338.959-759.996 760.011h759.996zm0 0" transform="rotate(.158) scale(.26461)" fill="url(#h)" stroke-width="11.339" stroke-linecap="round" stroke="#333"/><path d="M111.685-109.9C75.337-73.554 52.917-23.285 52.917 32.417h201.082zm0 0" transform="matrix(1.0001 0 0 1.0001 0 215.02)" fill="url(#i)" stroke-width="3" stroke-linecap="round" stroke="#333"/><path d="M254 233.5c-111.4 0-201.083-89.683-201.083-201.082h201.082zm0 0" transform="matrix(1.0001 0 0 1.0001 0 215.02)" fill="url(#j)" stroke-width="3" stroke-linecap="round" stroke="#333"/><path d="M254 233.684c51.4 0 102.802-19.694 142.189-59.08L253.999 32.417zm0 0" transform="matrix(1.0001 0 0 1.0001 0 215.02)" fill="url(#k)" stroke-width="3" stroke-linecap="round" stroke="#333"/><path d="M396.318-109.9c36.344 36.347 58.764 86.616 58.764 142.318H253.999zm0 0" transform="matrix(1.0001 0 0 1.0001 0 215.02)" fill="url(#l)" stroke-width="3" stroke-linecap="round" stroke="#333"/><path d="M253.312 233.684c-51.402 0-102.803-19.694-142.186-59.08L253.312 32.417zm0 0" transform="matrix(1.0001 0 0 1.0001 0 215.02)" fill="url(#m)" stroke-width="3" stroke-linecap="round" stroke="#333"/><path d="M254.023 448.543c-111.41 0-201.101-89.691-201.101-201.102 0-.66.008-1.316.012-1.968 1.05 110.492 90.336 199.132 201.09 199.132 110.753 0 200.038-88.64 201.09-199.132.007.652.011 1.308.011 1.968 0 111.41-89.691 201.102-201.102 201.102zm0 0" fill-opacity=".196"/><path d="M254.023 46.336c-111.41 0-201.101 89.691-201.101 201.105 0 .657.008 1.313.012 1.97 1.05-110.497 90.336-199.134 201.09-199.134 110.753 0 200.038 88.637 201.09 199.133.007-.656.011-1.312.011-1.969 0-111.414-89.691-201.105-201.102-201.105zm0 0" fill="#fff" fill-opacity=".392"/><path d="M254.023 44.84c-112.214 0-202.601 90.383-202.601 202.601 0 112.215 90.387 202.602 202.601 202.602 112.215 0 202.606-90.387 202.606-202.602 0-112.218-90.39-202.601-202.606-202.601zm0 3c110.606 0 199.606 88.992 199.606 199.601 0 110.606-89 199.602-199.606 199.602-110.605 0-199.601-88.996-199.601-199.602 0-110.609 88.996-199.601 199.601-199.601zm0 0" fill="#212121"/><path d="M254-62.835c52.604 0 95.252 42.648 95.252 95.253 0 52.604-42.648 95.248-95.253 95.248-52.604 0-95.249-42.644-95.249-95.248 0-52.605 42.645-95.253 95.25-95.253zm0 0" transform="matrix(1.0001 0 0 1.0001 0 215.02)" fill="url(#n)" stroke-width="3" stroke-linecap="square" stroke-linejoin="round" stroke="#212121"/></svg>
